public/assets/servicesLeftArrow.svg

<svg width="100" height="100" viewBox="0 0 100 100" fill="none" xmlns="http://www.w3.org/2000/svg">
<g clip-path="url(#clip0)">
<path d="M93.989 42.9809C93.5798 42.9145 93.1657 42.8839 92.7514 42.8892H22.2034L23.7417 42.1738C25.2454 41.4621 26.6133 40.4935 27.7842 39.3118L47.5677 19.5283C50.1732 17.0411 50.611 13.0399 48.6051 10.048C46.2706 6.85984 41.7936 6.1676 38.6052 8.50212C38.3476 8.69083 38.1028 8.89654 37.8727 9.1179L2.09798 44.8926C-0.697815 47.6853 -0.700275 52.2155 2.09239 55.0113C2.09418 55.0131 2.09619 55.0151 2.09798 55.0169L37.8727 90.7916C40.6707 93.5818 45.2009 93.5756 47.9914 90.7775C48.2109 90.5573 48.416 90.323 48.6051 90.0761C50.611 87.0842 50.1732 83.0831 47.5677 80.5958L27.82 60.7766C26.7702 59.7257 25.5633 58.8446 24.2425 58.1651L22.0961 57.1991H92.3576C96.0127 57.3349 99.2195 54.7817 99.9061 51.189C100.539 47.2884 97.8895 43.6137 93.989 42.9809Z" fill="#B86767"/>
</g>
<defs>
<clipPath id="clip0">
<rect width="100" height="100" fill="white"/>
</clipPath>
</defs>
</svg>

<svg width="100" height="100" fill="none" xmlns="http://www.w3.org/2000/svg"><g clip-path="url(#a)"><path d="M93.989 42.98a7.155 7.155 0 0 0-1.238-.09H22.203l1.539-.716a14.308 14.308 0 0 0 4.042-2.862l19.784-19.784a7.405 7.405 0 0 0 1.037-9.48 7.155 7.155 0 0 0-10.732-.93L2.098 44.893a7.155 7.155 0 0 0-.006 10.118l.006.006 35.775 35.775a7.155 7.155 0 0 0 10.732-.716 7.405 7.405 0 0 0-1.037-9.48L27.82 60.776a14.31 14.31 0 0 0-3.578-2.61l-2.146-.967h70.262a7.405 7.405 0 0 0 7.548-6.01 7.155 7.155 0 0 0-5.917-8.208Z" fill="#B86767"/></g><defs><clipPath id="a"><path fill="#fff" d="M0 0h100v100H0z"/></clipPath></defs></svg>
